!!!OTL: No_111_The_Song_of_Ce'deēns'_(Juggler's_Song).krn
!!!REG: Great_Lakes
!!!LANG: Non-Tone
!!!LING_GROUP: Algonquin
!!!SOCIAL_FUNCTION: dream songs
**kern	**kern
*staff2	*staff1
=1-	=1-
*clefF4	*clefF4
*k[f#c#g#]	*k[f#c#g#]
*M3/4	*M3/4
2r	8e\L
.	8e\J
.	4fn\
8r	4e\
8AA/	.
=2	=2
12AA^/	2.e\
12r	.
12AA/	.
12AA^/	.
12r	.
12AA/	.
12AA^/	.
12r	.
12AA/	.
=3	=3
2.r	8e\L
.	8c#\J
.	4e\
.	(4c#\
=4	=4
2.r	8A\L)
.	8A\J
.	4A\
.	4A\
=5	=5
2.r	2.A\
=6	=6
2.r	2e\
.	4c#\
=7	=7
2.r	8A\L
.	8A\J
.	4A\
.	4F#\
=8	=8
2.r	8A\L
.	8A\J
.	4A\
.	4F#\
=9	=9
2.r	8E\L
.	8E\J
.	4F#\
.	4E\
=10	=10
2.r	2.E\
=11	=11
2.r	8A\L
.	8A\J
.	4A\
.	4F#\
=12	=12
2.r	8E\L
.	8E\J
.	4E\
.	4C#/
=13	=13
2.r	8E\L
.	8E\J
.	4E\
.	4C#/
=14	=14
2.r	8AA/L
.	8AA/J
.	2AA/
=15	=15
2.r	2.AA/
=16||	=16||
*M2/4	*M2/4
2r	8e\L
.	8e\J
.	8e\L
.	8e\J
=17	=17
2r	4e\
.	8e\L
.	8e\J
=18	=18
2r	4.e\
.	8e\
=19	=19
2r	12c#\L
.	12e\
.	12e\J
.	(8c#\L
.	8A\J)
=20||	=20||
*M3/4	*M3/4
2.r	8A\L
.	8A\J
.	2A\
=21	=21
2.r	2.A\
=22	=22
2.r	2e\
.	4c#\
=23	=23
2.r	8A\L
.	8A\J
.	4A\
.	4F#\
=24	=24
2.r	8A\L
.	8A\J
.	4A\
.	4F#\
=25	=25
2.r	8E\L
.	8E\J
.	4F#\
.	4E\
=26	=26
2.r	2.E\
=27	=27
2.r	8A\L
.	8A\J
.	4A\
.	4F#\
=28	=28
2.r	8E\L
.	8E\J
.	4E\
.	4C#/
=29	=29
2.r	8E\L
.	8E\J
.	4E\
.	4C#/
=30	=30
2.r	8AA/L
.	8AA/J
.	2AA/
=31	=31
2.r	2.AA/
==	==
*-	*-
